X:1
T:Title
%%score { 1 | ( 2 3 ) }
L:1/8
Q:1/4=100
M:6/8
K:Bb
V:1 treble nm="Grand Piano"
V:2 bass 
V:3 bass 
V:1
 [DF]2 [DF] [DB]2 [B,FA] | [B,EG]2 [B,EG] [EGc]3 | B2 A G2 A | [EG]3 [DF]3 | %4
w: Robert~Lowry * * *||||
 [DF]2 [DF] [DB]2 [B,FA] | [B,EG]2 [B,EG] [EGc]3 | B2 A d2 c | [DB]3 [DB]3 | d2 d dcB | c2 c c3 | %10
w: ||||||
 c2 c cBA | [DB]2 [DB] [DB]3 | [Fd]3 [DB]3 | [DF]3 [B,D]3 | [DF]2 [FB] [EA]2 [DB] | c3 G3 | %16
w: ||||||
 c3 [Fd]3 | [Ge]3 c3 | B2 B d2 c | [DB]6 |] %20
w: ||||
V:2
 [B,,B,]2 [B,,B,] [B,,F,]2 D, | E,2 E, C,3 | [F,DF]2 [F,CF] [F,B,E]2 [F,CE] | [B,,B,]3 [B,,B,]3 | %4
 [B,,B,]2 [B,,B,] [B,,F,]2 D, | E,2 E, C,3 | [F,DF]2 [F,CF] [F,B,F]2 [F,A,E] | [B,,B,]3 [B,,B,]3 | %8
 [B,F]2 [B,F] FE[B,D] | [F,A,F]2 [F,A,F] [F,A,F]3 | [F,A,E]2 [F,A,E] [A,E][B,D][F,CE] | %11
 [B,,B,]2 [B,,B,] [B,,B,]3 | [B,,B,]3 [B,,F,]3 | [B,,B,]3 [B,,F,]3 | %14
 [B,,B,]2 [D,B,] [C,F,]2 [B,,F,] | [E,G,E]3 [E,B,E]3 | [E,G,E]3 [D,=B,]3 | [C,C]3 [E,G,E]3 | %18
 [F,D]2 [F,D] [F,B,F]2 [F,A,E] | [B,,B,]6 |] %20
V:3
 x6 | x6 | x6 | x6 | x6 | x6 | x6 | x6 | z3 .B,3 | x6 | z3 .F,3 | x6 | x6 | x6 | x6 | x6 | x6 | %17
 x6 | x6 | x6 |] %20

